X:114
T:Reels simple chords 289
M:3/4
L:1/8
K:D
ag [f2D,2F,2A,2] d2 | f2 d2 [fD,F,A,]a2 |f a2 gf | [e2=C,2E,2G,2] c2 e2 | =c2 [eC,E,G,]g2e |
g2 ag [f2D,2F,2A,2] | d2 f2 d2 | [fD,F,A,]a2f a2 | (3ABc [d2G,2B,2D2] dB |
AB AG [F2D,2F,2A,2] | D2 D2 ag | [f2D,2F,2A,2] d2 f2 | d2 [fD,F,A,]a2f |
a2 gf [e2=C,2E,2G,2] | =c2 e2 c2 | [e=C,E,G,]g2e g2 | ag [f2D,2F,2A,2] d2 |
f2 d2 [fD,F,A,]a2 |f a2 (3ABc | [d2G,2B,2D2] dB AB | AG [F2D,2F,2A,2] D2 |
D2 EF [G2G,2B,2D2] | B2 B2 AG | [FD,F,A,]A2A A2 | cd [e2E,2^G,2B,2] ef |
e2 d2 [cA,CE]d | Bc A2 EF | [GG,B,D]B2B B2 | AG [FD,F,A,]A2A |
A2 Bc [dG,B,D]c | dB AB AG | [F2D,2F,2A,2] D2 D2 | EF [G2G,2B,2D2] B2 |
B2 AG [FD,F,A,]A2 |A A2 cd | [e2E,2^G,2B,2] ef e2 | d2 [cA,CE]d Bc |
A2 EF [GG,B,D]B2 |B B2 AG | [FD,F,A,]A2A A2 | Bc [dG,B,D]c dB |
AB AG [F2D,2F,2A,2] | D2 D2 |


